ES1T1/16/aimg/durazno.svg

<svg clip-rule="evenodd" fill-rule="evenodd" stroke-linejoin="round" stroke-miterlimit="2" viewBox="0 0 168 178" xmlns="http://www.w3.org/2000/svg" xmlns:xlink="http://www.w3.org/1999/xlink"><radialGradient id="a" cx="264.003" cy="292.355" gradientUnits="userSpaceOnUse" r="71.5136"><stop offset="0" stop-color="#c76d4b"/><stop offset=".93" stop-color="#dba549"/><stop offset="1" stop-color="#dba549"/></radialGradient><g fill-rule="nonzero" transform="translate(-180 -184)"><path d="m218.66 242.36c-6.99-11.17-6.14-21.67.98-32.01 4.45-6.46 8.13-13.33 10.5-20.88 1.41-4.49 1.65-4.51 6.6-4.71.95-.04 1.9.04 2.84-.04 8.1-.72 15.23 1.29 19.98 8.24 5.28 7.72 7.96 16.13 4.56 25.52-.55 1.53-.86 3.15-1.25 4.73-.05.19.13.43.45 1.35 3.23 0 6.74-.14 10.22.03 8.26.39 16.54.68 24.76 1.48 8.47.82 15.88 4.49 22.39 9.91 2.91 2.42 5.78 4.91 8.55 7.49 14.23 13.27 19.91 29.81 17.26 48.83-1.06 7.63-4.29 14.94-6.37 22.44-2.48 8.95-6.1 17.44-10.48 25.56-3.47 6.43-7.53 12.56-11.45 18.74-1.48 2.33-3.84 2.41-6.35 1.82-3.68-.87-7.45-1.43-11.08-2.47-10.17-2.91-20.57-3.12-31.01-2.8-15.05.47-29.64-2.74-44.21-5.74-10.73-2.21-19.81-7.44-26.36-16.73-3.26-4.62-7.52-8.53-11.04-12.99-2.02-2.56-4.03-5.37-5.07-8.4-7.31-21.24-1.56-46.6 19.12-61.28 3.25-2.3 7.02-3.88 10.6-5.68 1.86-.91 3.82-1.58 5.86-2.41zm78.46 65.73c-1.25-2.19-2.14-3.49-2.76-4.9-1.43-3.25-2.68-6.57-4.08-9.83-6.34-14.77-15.83-27.47-26.55-39.25-2.27-2.49-5.62-4.48-8.86-5.51-9.6-3.05-19.76-3.97-29.52-2.19-27.64 5.04-44.56 28.94-39 58.59.93 4.94 3.07 9.38 6.7 13.11 3.3 3.39 6.58 6.9 9.24 10.79 6.92 10.11 16.85 15.1 28.45 17.03 13.28 2.21 26.5 5.14 40.15 4.33 10.48-.63 20.78.89 30.98 3.23 3.87.89 7.81 1.51 12.4 2.39 3.73-6.18 7.66-12.07 10.95-18.29 4.1-7.73 7.79-15.66 10.07-24.2 2.07-7.75 5.02-15.29 6.74-23.11.94-4.28.87-9.1-.02-13.41-4.04-19.69-16.24-33.16-33.51-42.6-6.69-3.66-14.11-4.12-21.34-4.74-10.35-.9-20.91-1.54-30.82 2.63-4.8 2.02-9.95 3.85-13.88 8.81 4.18.85 7.59 1.7 11.05 2.22 6.23.95 10.97 4.2 14.78 9.04 3.52 4.47 7.22 8.8 10.55 13.4 7.27 10.03 12.82 21.03 17.61 32.41 1.13 2.65 2.89 5.56.67 10.05zm-61.15-119.12c-4.79 8.7-9 16.32-13.2 23.95-1.25 2.28-2.79 4.44-3.71 6.84-3.02 7.89-2.2 15.24 3.67 21.89 3.08-.45 6.06-.88 9.56-1.4-1.88-7.08 1.26-12.57 4.68-18.03 2.26-3.6 4.55-7.23 6.35-11.07 2.9-6.17 3.62-12.29-2.16-17.52-.45-.41-.54-1.22-1.03-2.4 1.36-.11 2.62-.63 3.35-.21 2.77 1.56 4.83 3.84 5.14 7.2.57 6.2.52 12.25-3.19 17.76-2.77 4.11-5.23 8.45-7.73 12.74-1.69 2.91-2.9 5.96-1.55 9.2 4.61-2.85 9.02-6.03 13.81-8.41 5.58-2.78 8.33-7.32 10.13-12.91 2.67-8.32-.78-19.77-7.85-24.76-1.87-1.32-4.18-2.46-6.41-2.76-3.44-.45-7-.11-9.86-.11z"/><path d="m297.12 308.09c2.22-4.49.46-7.4-.66-10.08-4.78-11.37-10.34-22.38-17.61-32.41-3.33-4.6-7.03-8.94-10.55-13.4-3.81-4.84-8.55-8.09-14.78-9.04-3.46-.53-6.87-1.37-11.05-2.22 3.93-4.96 9.08-6.79 13.88-8.81 9.91-4.18 20.47-3.53 30.82-2.63 7.23.63 14.65 1.09 21.34 4.74 17.27 9.44 29.47 22.92 33.51 42.6.89 4.31.96 9.13.02 13.41-1.72 7.82-4.68 15.35-6.74 23.11-2.28 8.54-5.97 16.47-10.07 24.2-3.3 6.22-7.22 12.11-10.95 18.29-4.59-.88-8.52-1.5-12.4-2.39-10.2-2.34-20.51-3.86-30.98-3.23-13.65.82-26.86-2.12-40.15-4.33-11.6-1.93-21.53-6.92-28.45-17.03-2.66-3.89-5.94-7.4-9.24-10.79-3.63-3.73-5.77-8.17-6.7-13.11-5.57-29.65 11.35-53.55 39-58.59 9.76-1.78 19.92-.86 29.52 2.19 3.23 1.03 6.59 3.02 8.86 5.51 10.72 11.78 20.21 24.48 26.55 39.25 1.4 3.26 2.65 6.58 4.08 9.83.61 1.44 1.5 2.74 2.75 4.93z" fill="url(#a)"/><path d="m307.66 352.7c-6.8-2.6-13.68-6.18-19.24-10.94-8.87-7.59-10.14-12.9-25.12-13.45-5.51-.2-10.81.31-16.35-.37-17.3-2.14-33.4-10.14-38.32-27.96-5.2-18.82-.17-37.86 11.89-52.47-24.75 6.81-39.4 29.6-34.17 57.48.93 4.94 3.07 9.38 6.7 13.11 3.3 3.39 6.58 6.9 9.24 10.79 6.92 10.11 16.85 15.1 28.45 17.03 13.28 2.21 26.5 5.14 40.15 4.33 10.48-.63 20.78.89 30.98 3.23 3.88.89 7.81 1.51 12.4 2.39.19-.31.38-.61.57-.93-2.41-.59-4.82-1.34-7.18-2.24z" fill="#bf5135" fill-opacity=".3"/><path d="m235.97 188.97c2.86 0 6.42-.34 9.87.12 2.23.3 4.53 1.44 6.41 2.76 7.07 4.99 10.52 16.44 7.85 24.76-1.79 5.59-4.55 10.13-10.13 12.91-4.8 2.39-9.2 5.56-13.81 8.41-1.35-3.24-.15-6.29 1.55-9.2 2.5-4.29 4.96-8.62 7.73-12.74 3.71-5.51 3.76-11.56 3.19-17.76-.31-3.36-2.37-5.64-5.14-7.2-.74-.42-2 .1-3.35.21.49 1.17.57 1.98 1.03 2.4 5.77 5.24 5.06 11.35 2.16 17.52-1.8 3.84-4.09 7.46-6.35 11.07-3.42 5.46-6.56 10.95-4.68 18.03-3.5.51-6.49.95-9.56 1.4-5.87-6.66-6.69-14.01-3.67-21.89.92-2.4 2.46-4.57 3.71-6.84 4.19-7.64 8.4-15.27 13.19-23.96z" fill="#6ba550"/><path d="m281.89 235.43s51.05 6.45 47.29 48.36c-3.76 41.92-7.33-11.82-23.55-24.18s-58.67-32.24-23.74-24.18z" fill="#fff" fill-opacity=".7"/></g></svg>

<?xml version="1.0" encoding="UTF-8" standalone="no"?>
<!DOCTYPE svg PUBLIC "-//W3C//DTD SVG 1.1//EN" "http://www.w3.org/Graphics/SVG/1.1/DTD/svg11.dtd">
<svg width="100%" height="100%" viewBox="0 0 168 178" version="1.1" xmlns="http://www.w3.org/2000/svg" xmlns:xlink="http://www.w3.org/1999/xlink" xml:space="preserve" xmlns:serif="http://www.serif.com/" style="fill-rule:evenodd;clip-rule:evenodd;stroke-linejoin:round;stroke-miterlimit:2;">
    <g transform="matrix(1,0,0,1,-180,-184)">
        <g id="Capa_1">
            <g>
                <path d="M218.66,242.36C211.67,231.19 212.52,220.69 219.64,210.35C224.09,203.89 227.77,197.02 230.14,189.47C231.55,184.98 231.79,184.96 236.74,184.76C237.69,184.72 238.64,184.8 239.58,184.72C247.68,184 254.81,186.01 259.56,192.96C264.84,200.68 267.52,209.09 264.12,218.48C263.57,220.01 263.26,221.63 262.87,223.21C262.82,223.4 263,223.64 263.32,224.56C266.55,224.56 270.06,224.42 273.54,224.59C281.8,224.98 290.08,225.27 298.3,226.07C306.77,226.89 314.18,230.56 320.69,235.98C323.6,238.4 326.47,240.89 329.24,243.47C343.47,256.74 349.15,273.28 346.5,292.3C345.44,299.93 342.21,307.24 340.13,314.74C337.65,323.69 334.03,332.18 329.65,340.3C326.18,346.73 322.12,352.86 318.2,359.04C316.72,361.37 314.36,361.45 311.85,360.86C308.17,359.99 304.4,359.43 300.77,358.39C290.6,355.48 280.2,355.27 269.76,355.59C254.71,356.06 240.12,352.85 225.55,349.85C214.82,347.64 205.74,342.41 199.19,333.12C195.93,328.5 191.67,324.59 188.15,320.13C186.13,317.57 184.12,314.76 183.08,311.73C175.77,290.49 181.52,265.13 202.2,250.45C205.45,248.15 209.22,246.57 212.8,244.77C214.66,243.86 216.62,243.19 218.66,242.36ZM297.12,308.09C295.87,305.9 294.98,304.6 294.36,303.19C292.93,299.94 291.68,296.62 290.28,293.36C283.94,278.59 274.45,265.89 263.73,254.11C261.46,251.62 258.11,249.63 254.87,248.6C245.27,245.55 235.11,244.63 225.35,246.41C197.71,251.45 180.79,275.35 186.35,305C187.28,309.94 189.42,314.38 193.05,318.11C196.35,321.5 199.63,325.01 202.29,328.9C209.21,339.01 219.14,344 230.74,345.93C244.02,348.14 257.24,351.07 270.89,350.26C281.37,349.63 291.67,351.15 301.87,353.49C305.74,354.38 309.68,355 314.27,355.88C318,349.7 321.93,343.81 325.22,337.59C329.32,329.86 333.01,321.93 335.29,313.39C337.36,305.64 340.31,298.1 342.03,290.28C342.97,286 342.9,281.18 342.01,276.87C337.97,257.18 325.77,243.71 308.5,234.27C301.81,230.61 294.39,230.15 287.16,229.53C276.81,228.63 266.25,227.99 256.34,232.16C251.54,234.18 246.39,236.01 242.46,240.97C246.64,241.82 250.05,242.67 253.51,243.19C259.74,244.14 264.48,247.39 268.29,252.23C271.81,256.7 275.51,261.03 278.84,265.63C286.11,275.66 291.66,286.66 296.45,298.04C297.58,300.69 299.34,303.6 297.12,308.09ZM235.97,188.97C231.18,197.67 226.97,205.29 222.77,212.92C221.52,215.2 219.98,217.36 219.06,219.76C216.04,227.65 216.86,235 222.73,241.65C225.81,241.2 228.79,240.77 232.29,240.25C230.41,233.17 233.55,227.68 236.97,222.22C239.23,218.62 241.52,214.99 243.32,211.15C246.22,204.98 246.94,198.86 241.16,193.63C240.71,193.22 240.62,192.41 240.13,191.23C241.49,191.12 242.75,190.6 243.48,191.02C246.25,192.58 248.31,194.86 248.62,198.22C249.19,204.42 249.14,210.47 245.43,215.98C242.66,220.09 240.2,224.43 237.7,228.72C236.01,231.63 234.8,234.68 236.15,237.92C240.76,235.07 245.17,231.89 249.96,229.51C255.54,226.73 258.29,222.19 260.09,216.6C262.76,208.28 259.31,196.83 252.24,191.84C250.37,190.52 248.06,189.38 245.83,189.08C242.39,188.63 238.83,188.97 235.97,188.97Z" style="fill-rule:nonzero;"/>
                <path d="M297.12,308.09C299.34,303.6 297.58,300.69 296.46,298.01C291.68,286.64 286.12,275.63 278.85,265.6C275.52,261 271.82,256.66 268.3,252.2C264.49,247.36 259.75,244.11 253.52,243.16C250.06,242.63 246.65,241.79 242.47,240.94C246.4,235.98 251.55,234.15 256.35,232.13C266.26,227.95 276.82,228.6 287.17,229.5C294.4,230.13 301.82,230.59 308.51,234.24C325.78,243.68 337.98,257.16 342.02,276.84C342.91,281.15 342.98,285.97 342.04,290.25C340.32,298.07 337.36,305.6 335.3,313.36C333.02,321.9 329.33,329.83 325.23,337.56C321.93,343.78 318.01,349.67 314.28,355.85C309.69,354.97 305.76,354.35 301.88,353.46C291.68,351.12 281.37,349.6 270.9,350.23C257.25,351.05 244.04,348.11 230.75,345.9C219.15,343.97 209.22,338.98 202.3,328.87C199.64,324.98 196.36,321.47 193.06,318.08C189.43,314.35 187.29,309.91 186.36,304.97C180.79,275.32 197.71,251.42 225.36,246.38C235.12,244.6 245.28,245.52 254.88,248.57C258.11,249.6 261.47,251.59 263.74,254.08C274.46,265.86 283.95,278.56 290.29,293.33C291.69,296.59 292.94,299.91 294.37,303.16C294.98,304.6 295.87,305.9 297.12,308.09Z" style="fill:url(#_Radial1);fill-rule:nonzero;"/>
                <path d="M307.66,352.7C300.86,350.1 293.98,346.52 288.42,341.76C279.55,334.17 278.28,328.86 263.3,328.31C257.79,328.11 252.49,328.62 246.95,327.94C229.65,325.8 213.55,317.8 208.63,299.98C203.43,281.16 208.46,262.12 220.52,247.51C195.77,254.32 181.12,277.11 186.35,304.99C187.28,309.93 189.42,314.37 193.05,318.1C196.35,321.49 199.63,325 202.29,328.89C209.21,339 219.14,343.99 230.74,345.92C244.02,348.13 257.24,351.06 270.89,350.25C281.37,349.62 291.67,351.14 301.87,353.48C305.75,354.37 309.68,354.99 314.27,355.87C314.46,355.56 314.65,355.26 314.84,354.94C312.43,354.35 310.02,353.6 307.66,352.7Z" style="fill:rgb(191,81,53);fill-opacity:0.3;fill-rule:nonzero;"/>
                <path d="M235.97,188.97C238.83,188.97 242.39,188.63 245.84,189.09C248.07,189.39 250.37,190.53 252.25,191.85C259.32,196.84 262.77,208.29 260.1,216.61C258.31,222.2 255.55,226.74 249.97,229.52C245.17,231.91 240.77,235.08 236.16,237.93C234.81,234.69 236.01,231.64 237.71,228.73C240.21,224.44 242.67,220.11 245.44,215.99C249.15,210.48 249.2,204.43 248.63,198.23C248.32,194.87 246.26,192.59 243.49,191.03C242.75,190.61 241.49,191.13 240.14,191.24C240.63,192.41 240.71,193.22 241.17,193.64C246.94,198.88 246.23,204.99 243.33,211.16C241.53,215 239.24,218.62 236.98,222.23C233.56,227.69 230.42,233.18 232.3,240.26C228.8,240.77 225.81,241.21 222.74,241.66C216.87,235 216.05,227.65 219.07,219.77C219.99,217.37 221.53,215.2 222.78,212.93C226.97,205.29 231.18,197.66 235.97,188.97Z" style="fill:rgb(107,165,80);fill-rule:nonzero;"/>
                <path d="M281.89,235.43C281.89,235.43 332.94,241.88 329.18,283.79C325.42,325.71 321.85,271.97 305.63,259.61C289.41,247.25 246.96,227.37 281.89,235.43Z" style="fill:white;fill-opacity:0.7;fill-rule:nonzero;"/>
            </g>
        </g>
    </g>
    <defs>
        <radialGradient id="_Radial1" cx="0" cy="0" r="1" gradientUnits="userSpaceOnUse" gradientTransform="matrix(71.5136,0,0,71.5136,264.003,292.355)"><stop offset="0" style="stop-color:rgb(199,109,75);stop-opacity:1"/><stop offset="0.93" style="stop-color:rgb(219,165,73);stop-opacity:1"/><stop offset="1" style="stop-color:rgb(219,165,73);stop-opacity:1"/></radialGradient>
    </defs>
</svg>
